resources/logo/logo.svg

<?xml version="1.0" encoding="UTF-8" standalone="no"?>
<svg
   xmlns:dc="http://purl.org/dc/elements/1.1/"
   xmlns:cc="http://creativecommons.org/ns#"
   xmlns:rdf="http://www.w3.org/1999/02/22-rdf-syntax-ns#"
   xmlns:svg="http://www.w3.org/2000/svg"
   xmlns="http://www.w3.org/2000/svg"
   xmlns:sodipodi="http://sodipodi.sourceforge.net/DTD/sodipodi-0.dtd"
   xmlns:inkscape="http://www.inkscape.org/namespaces/inkscape"
   viewBox="0 0 87.84 36"
   width="87.84"
   height="36"
   version="1.1"
   id="svg843"
   sodipodi:docname="logo.svg"
   inkscape:export-filename="/Users/slarosa/pyrtlib.png"
   inkscape:export-xdpi="1093.3334"
   inkscape:export-ydpi="1093.3334"
   inkscape:version="1.0.1 (c497b03c, 2020-09-10)">
  <metadata
     id="metadata849">
    <rdf:RDF>
      <cc:Work
         rdf:about="">
        <dc:format>image/svg+xml</dc:format>
        <dc:type
           rdf:resource="http://purl.org/dc/dcmitype/StillImage" />
      </cc:Work>
    </rdf:RDF>
  </metadata>
  <defs
     id="defs847" />
  <sodipodi:namedview
     pagecolor="#ffffff"
     bordercolor="#666666"
     borderopacity="1"
     objecttolerance="10"
     gridtolerance="10"
     guidetolerance="10"
     inkscape:pageopacity="0"
     inkscape:pageshadow="2"
     inkscape:window-width="1680"
     inkscape:window-height="1005"
     id="namedview845"
     showgrid="false"
     inkscape:zoom="12.067396"
     inkscape:cx="43.919998"
     inkscape:cy="18"
     inkscape:window-x="0"
     inkscape:window-y="23"
     inkscape:window-maximized="1"
     inkscape:current-layer="svg843" />
  <g
     fill="#ead017"
     color="#ead017"
     transform="matrix(0.2800001,0,0,0.2800001,4.226264,5.56436)"
     id="g839">
    <svg
       width="100"
       height="88.825996"
       x="0.0"
       y="0.0"
       viewBox="0 0 100 88.826"
       version="1.1"
       id="svg837">
      <path
         d="m 38.538,60.042 c -0.388,0.178 -0.792,0.274 -1.206,0.274 -3.097,0 -5.607,-5.241 -5.607,-11.707 0,-5.978 2.146,-10.905 4.917,-11.616 V 36.991 L 40.302,35.453 27.363,9.958 0,0 32.667,64.373 60.03,74.332 50.282,55.123 38.538,60.044 v -0.002 z"
         id="path833" />
      <path
         d="M 67.333,24.453 39.97,14.494 48.796,31.888 60.442,26.997 c 0.124,-0.062 0.251,-0.115 0.378,-0.159 l 0.027,-0.011 v 0.002 c 0.289,-0.097 0.585,-0.148 0.887,-0.148 3.097,0 5.606,5.24 5.606,11.707 0,5.558 -1.854,10.208 -4.343,11.405 v 0.003 l -0.059,0.025 c -0.059,0.026 -0.117,0.051 -0.177,0.074 L 58.779,51.563 72.635,78.868 100,88.826 Z"
         id="path835" />
    </svg>
  </g>
  <text
     xml:space="preserve"
     style="font-style:normal;font-weight:normal;font-size:18.6667px;line-height:1.25;font-family:sans-serif;fill:#1662a6;fill-opacity:1;stroke:none"
     x="34.339565"
     y="24.066683"
     id="text853"><tspan
       sodipodi:role="line"
       id="tspan851"
       x="34.339565"
       y="24.066683"
       style="font-style:normal;font-variant:normal;font-weight:300;font-stretch:normal;font-size:18.6667px;font-family:'Apple SD Gothic Neo';-inkscape-font-specification:'Apple SD Gothic Neo Light';fill:#1662a6;fill-opacity:1">pyrtlib</tspan></text>
</svg>

<?xml version="1.0" standalone="no"?>
<svg xmlns="http://www.w3.org/2000/svg" viewBox="0 0 87.84 36" width="87.84" height="36"><g fill="#ead017" color="#ead017" transform="translate(0 5.564359999999999) scale(0.2800001)"><svg width="100.0" height="88.826" x="0.0" y="0.0" viewBox="0 0 100 88.826"><path d="M38.538,60.042c-0.388,0.178-0.792,0.274-1.206,0.274c-3.097,0-5.607-5.241-5.607-11.707c0-5.978,2.146-10.905,4.917-11.616  v-0.002l3.66-1.538L27.363,9.958L0,0l32.667,64.373l27.363,9.959l-9.748-19.209l-11.744,4.921V60.042z"></path><path d="M67.333,24.453L39.97,14.494l8.826,17.394l11.646-4.891c0.124-0.062,0.251-0.115,0.378-0.159l0.027-0.011v0.002  c0.289-0.097,0.585-0.148,0.887-0.148c3.097,0,5.606,5.24,5.606,11.707c0,5.558-1.854,10.208-4.343,11.405v0.003l-0.059,0.025  c-0.059,0.026-0.117,0.051-0.177,0.074l-3.982,1.668l13.856,27.305L100,88.826L67.333,24.453z"></path></svg></g><path fill="#1662a6" fill-rule="nonzero" d="M6.38 0L6.38 0Q9.77 0 9.77 5.76L9.77 5.76Q9.77 7.97 8.90 9.77L8.90 9.77Q8.42 10.73 7.46 11.28Q6.50 11.83 5.33 11.83Q4.15 11.83 2.88 11.26L2.88 11.26Q3 14.26 3.10 15.10L3.10 15.10L3.98 15.17L4.03 15.79Q4.03 16.27 3.96 16.51L3.96 16.51Q3.38 16.49 1.98 16.49Q0.58 16.49 0.10 16.51L0.10 16.51Q0.02 16.10 0.02 15.79Q0.02 15.48 0.07 15.17L0.07 15.17L0.96 15.10Q1.15 12.48 1.15 8.10Q1.15 3.72 0.96 1.70L0.96 1.70L0.07 1.63Q0 1.42 0 0.95Q0 0.48 0.02 0.29L0.02 0.29Q1.13 0.26 2.98 0.07L2.98 0.07L3.10 0.19Q3 0.89 2.98 1.56L2.98 1.56Q4.63 0 6.38 0ZM5.11 10.10L5.11 10.10Q7.73 10.10 7.73 5.45L7.73 5.45Q7.73 2.62 6.79 1.87L6.79 1.87Q6.36 1.54 5.66 1.54Q4.97 1.54 4.20 1.99Q3.43 2.45 2.90 3.10L2.90 3.10Q2.86 5.09 2.86 9.55L2.86 9.55Q4.25 10.10 5.11 10.10ZM18.31 1.68L17.30 1.61Q17.26 1.37 17.26 0.97Q17.26 0.58 17.33 0.26L17.33 0.26Q18.05 0.29 19.33 0.29Q20.62 0.29 21.31 0.26L21.31 0.26Q21.38 0.58 21.38 0.94Q21.38 1.30 21.34 1.61L21.34 1.61L20.62 1.68Q19.97 3.43 18.95 6.50Q17.93 9.58 17.41 11.02Q16.90 12.46 16.45 13.34Q16.01 14.23 15.48 15.02L15.48 15.02Q14.47 16.51 13.09 16.51Q11.71 16.51 10.56 15.74L10.56 15.74Q10.66 14.35 11.35 13.75L11.35 13.75Q12.07 14.74 13.10 14.74L13.10 14.74Q14.21 14.74 15.55 11.62L15.55 11.62Q14.33 7.32 11.69 1.68L11.69 1.68L10.90 1.61Q10.85 1.32 10.85 0.95Q10.85 0.58 10.92 0.26L10.92 0.26Q11.62 0.29 13.00 0.29Q14.38 0.29 15.10 0.26L15.10 0.26Q15.17 0.58 15.17 0.95Q15.17 1.32 15.12 1.61L15.12 1.61L14.14 1.68Q14.59 4.34 16.49 8.81L16.49 8.81L16.58 8.81Q17.78 4.92 18.31 1.68L18.31 1.68ZM22.37 10.15L23.21 10.08Q23.42 7.68 23.42 5.68Q23.42 3.67 23.23 1.70L23.23 1.70L22.34 1.63Q22.27 1.25 22.27 0.84Q22.27 0.43 22.30 0.29L22.30 0.29Q23.52 0.26 25.27 0.07L25.27 0.07L25.39 0.19Q25.37 0.34 25.25 1.61L25.25 1.61Q25.80 0.91 26.53 0.46Q27.26 0 27.97 0Q28.68 0 29.21 0.50Q29.74 1.01 29.74 1.82L29.74 1.82Q29.74 3.17 28.61 3.17L28.61 3.17Q27.96 3.17 27.58 2.75Q27.19 2.33 27.19 1.63L27.19 1.63Q27.14 1.61 27.02 1.61L27.02 1.61Q26.14 1.61 25.20 2.95L25.20 2.95Q25.18 3.62 25.18 5.96Q25.18 8.30 25.39 10.08L25.39 10.08L26.28 10.15Q26.33 10.68 26.33 10.88Q26.33 11.09 26.26 11.50L26.26 11.50Q25.58 11.47 24.29 11.47Q22.99 11.47 22.39 11.50L22.39 11.50Q22.32 11.14 22.32 10.81Q22.32 10.49 22.37 10.15L22.37 10.15ZM39.14 3.19L39.14 3.19L39.05 6.65Q39.05 8.28 39.24 9.84L39.24 9.84L40.13 9.91Q40.18 10.30 40.18 10.62Q40.18 10.94 40.10 11.30L40.10 11.30Q39.41 11.33 37.39 11.54L37.39 11.54Q37.22 11.09 37.13 10.42L37.13 10.42Q35.26 11.83 33.90 11.83Q32.54 11.83 31.79 10.96Q31.03 10.08 31.03 8.46Q31.03 6.84 32.05 5.90Q33.07 4.97 34.62 4.97Q36.17 4.97 37.27 5.54L37.27 5.54Q37.30 5.28 37.30 4.68L37.30 4.68Q37.30 2.90 36.80 2.12Q36.31 1.34 35.30 1.34Q34.30 1.34 33.84 1.73L33.84 1.73Q34.03 2.11 34.03 2.69Q34.03 3.26 33.66 3.68Q33.29 4.10 32.62 4.10L32.62 4.10Q31.49 4.10 31.49 2.77Q31.49 1.44 32.50 0.72Q33.50 0 35.33 0Q37.15 0 38.15 0.85Q39.14 1.70 39.14 3.19ZM37.18 7.06L37.18 7.06Q36.19 6.22 35.06 6.22L35.06 6.22Q32.90 6.22 32.90 8.14L32.90 8.14Q32.90 10.10 34.61 10.10L34.61 10.10Q35.23 10.10 35.94 9.78Q36.65 9.46 37.06 8.98L37.06 8.98Q37.18 7.54 37.18 7.06ZM48.46 0L48.46 0Q51.84 0 51.84 5.76L51.84 5.76Q51.84 7.97 50.98 9.77L50.98 9.77Q50.50 10.73 49.54 11.28Q48.58 11.83 47.40 11.83Q46.22 11.83 44.95 11.26L44.95 11.26Q45.07 14.26 45.17 15.10L45.17 15.10L46.06 15.17L46.10 15.79Q46.10 16.27 46.03 16.51L46.03 16.51Q45.46 16.49 44.05 16.49Q42.65 16.49 42.17 16.51L42.17 16.51Q42.10 16.10 42.10 15.79Q42.10 15.48 42.14 15.17L42.14 15.17L43.03 15.10Q43.22 12.48 43.22 8.10Q43.22 3.72 43.03 1.70L43.03 1.70L42.14 1.63Q42.07 1.42 42.07 0.95Q42.07 0.48 42.10 0.29L42.10 0.29Q43.20 0.26 45.05 0.07L45.05 0.07L45.17 0.19Q45.07 0.89 45.05 1.56L45.05 1.56Q46.70 0 48.46 0ZM47.18 10.10L47.18 10.10Q49.80 10.10 49.80 5.45L49.80 5.45Q49.80 2.62 48.86 1.87L48.86 1.87Q48.43 1.54 47.74 1.54Q47.04 1.54 46.27 1.99Q45.50 2.45 44.98 3.10L44.98 3.10Q44.93 5.09 44.93 9.55L44.93 9.55Q46.32 10.10 47.18 10.10Z" transform="translate(36, 9.744)"></path></svg>
